X: 81
T: The Message of a Star
N: Derived from pawnee81.krn
O: Oklahoma, U.S.A.
N: from Pawnee Music by Frances Densmore, 1926
Z: transcribed to **kern format by David Huron, August 2000
C: Skidi and Chaui Bands, 1919
L: 1/16
M: 2/4
Q: 1/4=88
K: Eb clef=bass
%%linebreak <none>
E2> E2 E2 E3/ C/ | 
E4B,4 | 
E2> E2 E2 E3/ C/ | 
E4B,4 | 
E2 B, B, E2 B, B,[M:3/4] | 
E2 B, B,2< G,2 G, G,2 G,2 | 
(3E2 B,2> G,2 B,2> E,2E,4[M:2/4] | 
G,2> G,2 (3B,2 G,2 E,2 | 
E,6E,2[M:3/4] | 
E,4E,8 | 
E B, B, B,G,4G,4[M:2/4] | 
E B, B, B,G,4[M:3/4] | 
B, G, G, G,E,4E,2 E,2 | 
G,2 G,2 B,2< G,2 E,3 E,[M:2/4] | 
E,8 | 
E,8 |]  



